X:70
T: Belles of Tipperary
S: McGann - Conway
Z: B.Black
R: reel
M: 4/4
L: 1/8
K: D
D2 (3FED FAAB |d2 fe dBBA |B2 AF ABde|fafd fe e2 |
D2 (3FED FAAB |d2 fe dBBA |B2 AF ABdB|FAEG FD D2 :|
agab afdf | gfed cdef | g2 gf gbag | faaf egfe |
dB B2 AF F2 | DF F2 ABde | fedc dBAF | A2 ag fd d2 :|
